X:210
T:Saxon Waltz,The. CJF.210
R:Waltz
S:C.J.Fox MS, 1829/33, Beverley,E.Yorks.
N:The asterisk-marked note is omitted in the MS. – PJH
B:Kidson Coll.Mitchell Lib.M1805
O:England
A:East Yorkshire
Z:vmp.P J Headford 2000 & 2008
M:3/8
L:1/16
Q:3/8=50
K:C
” Allegro p”(GA)|.G2(c2e2)|.G2(d2f2)|.G2(e2g2)|(f2d2).B2|\
.G2(c2e2)|A2(d2f2)|.B2(d2g2)|c4:|!
|:g2|.c’.g.e.c.G.E|A2a2 A2|B2b2 B2|c2c’2 d2|\
.e’.c’.g.e.c.G|A2 (a/g/f/e/) (d/c/B/A/)|\
G2 (g/f/e/d/ c/B/A/G/)|{G}c4:|!
|:(ef)|.g.c(Bc).g.c|.a.c(Bc).a.c|.g.c(Bc).g.c|.d.B.c.d.e.f|\
.g(cBc).g.c|.a(cBc).a.c|(bab).g.a.b|c’4:|!
|:de|.f(G^FG).=f.B|.e(G^F”*”G).e.G|\
.d.G.e.G.f.G|.e(cBc).d.e|\
.f(G^FG).=f.G|.e(G^FG).e.G|.d(G^FG).d.G|c4:|!
|:g2|(g2c’2).g2|ecGEG_B|(A2a2).c2|(cB)(AG).A.B|\
.c(e/d/) .e(g/^f/) g^G|.A(f/e/) f(a/^g/)aA|.B(g/^f/) .g(ba) b.g|c’4:|

